public/images/ico_googleplus.svg

<svg height="20" viewBox="0 0 19 20" width="19" xmlns="http://www.w3.org/2000/svg"><g fill="#fff" fill-rule="evenodd"><path d="m11.7135 12.3258065c-.3827143-.4883871-.8475357-.9083871-1.3415357-1.2935484-.47500001-.3709678-1.07282144-.7245162-1.39853573-1.23548391-.75321428-1.18193548.86992857-2.0916129 1.57225003-2.83870967 1.5966785-1.69612904 1.1752857-4.81161291-.85703574-6.0367742.50417854 0 1.19700004.12451613 1.67471424-.01225806.5530358-.15870968 1.1277858-.62774194 1.62925-.90645161-1.7378214 0-3.47564281-.00580646-5.21346424 0-1.62382143.00516129-3.30532143.22451612-4.59596429 1.23548387-1.46842857 1.15032258-2.25353571 3.03806451-1.65232143 4.80774193.69960715 2.05870968 2.97485715 2.93870968 5.08860715 2.69225807-.11807143.42387096-.31282143.75935483-.25378572 1.21354838.07328572.5632258.40917857 1.0793548.76678572 1.52-1.92985715.0470968-4.23021429.3670968-5.75360715 1.5877419-1.44060714 1.1541936-1.87557143 3.2483871-.59239285 4.6567742 1.32660714 1.4554839 3.78846428 1.7419355 5.68235714 1.6122581 1.68285714-.1154839 3.35146428-.6174194 4.57017857-1.7690323 1.4372143-1.3574193 1.957-3.5974193.6745-5.2335483-.2157857-.2754839.2157857.2754838 0 0zm-4.71471429-4.22774198c-3.49057142 0-5.04857142-7.2767742-1.01582142-7.25806452 1.97396428.00967742 2.86560714 2.08645161 3.1635 3.64580645.30467857 1.59806452-.05564286 3.61225807-2.14767858 3.61225807zm3.38064289 8.73741938c-1.1454286 1.8632258-4.35575003 1.6851613-6.13700003.9380645-1.84910714-.7754839-2.78689286-3.0587097-1.083-4.4916129.74303572-.6258065 1.83892857-.9025807 2.79842857-1.0296774.52996429-.0703226 1.11692857-.1322581 1.65164286-.0754839.38610714.0406452.61953571.2496774.94321429.4677419 1.40192857.9445162 2.89750001 2.447742 1.82671431 4.1909678-.2239286.3638709.2252857-.3670968 0 0z"/><path d="m19 2.58064516h-2.7142857v-2.58064516h-1.3571429v2.58064516h-2.7142857v1.29032258h2.7142857v2.58064516h1.3571429v-2.58064516h2.7142857z"/></g></svg>

<?xml version="1.0" encoding="UTF-8" standalone="no"?>
<svg width="19px" height="20px" viewBox="0 0 19 20" version="1.1" xmlns="http://www.w3.org/2000/svg" xmlns:xlink="http://www.w3.org/1999/xlink" xmlns:sketch="http://www.bohemiancoding.com/sketch/ns">
    <!-- Generator: Sketch 3.2.2 (9983) - http://www.bohemiancoding.com/sketch -->
    <title>Imported Layers</title>
    <desc>Created with Sketch.</desc>
    <defs></defs>
    <g id="Desktop" stroke="none" stroke-width="1" fill="none" fill-rule="evenodd" sketch:type="MSPage">
        <g id="1---Login" sketch:type="MSArtboardGroup" transform="translate(-426.000000, -578.000000)" fill="#FFFFFF">
            <g id="Card" sketch:type="MSLayerGroup" transform="translate(265.000000, 160.000000)">
                <g id="Google+-+-Facebook-+-SUGGESTED-LOG-IN" transform="translate(147.000000, 297.000000)" sketch:type="MSShapeGroup">
                    <g id="Google+" transform="translate(0.000000, 108.000000)">
                        <g id="Imported-Layers" transform="translate(14.000000, 13.000000)">
                            <path d="M11.7135,12.3258065 C11.3307857,11.8374194 10.8659643,11.4174194 10.3719643,11.0322581 C9.89696429,10.6612903 9.29914286,10.3077419 8.97342857,9.79677419 C8.22021429,8.61483871 9.84335714,7.70516129 10.5456786,6.95806452 C12.1423571,5.26193548 11.7209643,2.14645161 9.68864286,0.921290323 C10.1928214,0.921290323 10.8856429,1.04580645 11.3633571,0.909032258 C11.9163929,0.750322581 12.4911429,0.281290323 12.9926071,0.00258064516 C11.2547857,0.00258064516 9.51696429,-0.00322580645 7.77914286,0.00258064516 C6.15532143,0.00774193548 4.47382143,0.227096774 3.18317857,1.23806452 C1.71475,2.3883871 0.929642857,4.27612903 1.53085714,6.04580645 C2.23046429,8.10451613 4.50571429,8.98451613 6.61946429,8.73806452 C6.50139286,9.16193548 6.30664286,9.49741935 6.36567857,9.9516129 C6.43896429,10.5148387 6.77485714,11.0309677 7.13246429,11.4716129 C5.20260714,11.5187097 2.90225,11.8387097 1.37885714,13.0593548 C-0.06175,14.2135484 -0.496714286,16.3077419 0.786464286,17.716129 C2.11307143,19.1716129 4.57492857,19.4580645 6.46882143,19.3283871 C8.15167857,19.2129032 9.82028571,18.7109677 11.039,17.5593548 C12.4762143,16.2019355 12.996,13.9619355 11.7135,12.3258065 C11.4977143,12.0503226 11.9292857,12.6012903 11.7135,12.3258065 L11.7135,12.3258065 Z M6.99878571,8.09806452 C3.50821429,8.09806452 1.95021429,0.821290323 5.98296429,0.84 C7.95692857,0.849677419 8.84857143,2.92645161 9.14646429,4.48580645 C9.45114286,6.08387097 9.09082143,8.09806452 6.99878571,8.09806452 L6.99878571,8.09806452 Z M10.3794286,16.8354839 C9.234,18.6987097 6.02367857,18.5206452 4.24242857,17.7735484 C2.39332143,16.9980645 1.45553571,14.7148387 3.15942857,13.2819355 C3.90246429,12.656129 4.99835714,12.3793548 5.95785714,12.2522581 C6.48782143,12.1819355 7.07478571,12.12 7.6095,12.1767742 C7.99560714,12.2174194 8.22903571,12.4264516 8.55271429,12.6445161 C9.95464286,13.5890323 11.4502143,15.0922581 10.3794286,16.8354839 C10.1555,17.1993548 10.6047143,16.4683871 10.3794286,16.8354839 L10.3794286,16.8354839 Z" id="Fill-1"></path>
                            <path d="M19,2.58064516 L16.2857143,2.58064516 L16.2857143,0 L14.9285714,0 L14.9285714,2.58064516 L12.2142857,2.58064516 L12.2142857,3.87096774 L14.9285714,3.87096774 L14.9285714,6.4516129 L16.2857143,6.4516129 L16.2857143,3.87096774 L19,3.87096774 L19,2.58064516" id="Fill-2"></path>
                        </g>
                    </g>
                </g>
            </g>
        </g>
    </g>
</svg>
